public/media/ABInbev-logo.svg

<svg width="134" height="30" viewBox="0 0 134 30" fill="none" xmlns="http://www.w3.org/2000/svg">
<path d="M40.6274 13.4964C43.6609 12.2401 44.7854 10.5429 44.7854 8.44475C44.7854 4.783 41.6604 3.15259 36.5349 3.15259H27.3691C27.9444 4.04798 28.4936 5.01019 28.4936 6.45351V13.7236C25.8001 14.2715 23.3812 14.7392 21.1061 15.3005C19.0663 9.55397 16.7912 3.15259 16.7912 3.15259H11.0904C11.1819 3.95443 11.1035 4.80973 10.6851 5.9724L4.30434 24.1475C4.30434 24.1475 3.88593 25.4305 3.00989 26.5798H7.67776C7.58623 25.9517 7.70391 25.1231 7.86081 24.6153C8.33152 23.1853 9.59982 22.2365 10.9466 21.6217C12.6987 20.8065 15.7452 19.8309 17.1835 19.3899L18.7002 23.8268C18.7002 23.8268 19.3147 25.4973 18.9879 26.5798H25.5778C24.5841 25.2033 24.2441 24.1742 24.2441 24.1475C24.0872 23.7199 23.2243 21.2609 22.1129 18.1604C24.1264 17.666 26.2316 17.2517 28.4936 16.7973V23.2521C28.4936 24.495 27.9967 25.5908 27.3691 26.5664H36.0772C37.5024 26.5664 38.7707 26.4862 39.7252 26.3125C43.4648 25.6443 46.1452 23.6931 46.1452 19.5369C46.1583 16.3563 44.0662 14.4586 40.6274 13.4964ZM11.1819 18.3342C10.6328 18.6014 9.9267 19.0425 9.52137 19.4567C10.7766 15.7148 12.5025 10.5696 13.3393 8.13738L16.2159 16.53C14.7646 16.9577 12.5287 17.6793 11.1819 18.3342ZM33.5799 6.07932C34.4821 6.02586 34.8089 6.02586 35.3973 6.02586C38.2085 6.02586 39.516 7.22863 39.516 8.92586C39.516 10.5429 38.47 11.5452 36.731 12.0798C35.9988 12.307 34.7828 12.5609 33.5799 12.7747V6.07932V6.07932ZM35.6981 23.6664H33.5929V15.8618C34.3775 15.6747 35.6327 15.4475 36.4564 15.354C38.993 15.9554 40.8628 17.0245 40.8628 19.6706C40.8497 22.7577 38.64 23.6664 35.6981 23.6664Z" fill="#B31F24"/>
<path d="M48.5118 26.582C49.6363 24.8581 49.6363 23.2945 49.6363 23.2678V6.4825C49.6363 6.45577 49.6363 4.90554 48.5118 3.16821H55.8732C54.7488 4.90554 54.7488 6.45577 54.7488 6.4825V23.2678C54.7488 23.2945 54.7488 24.8581 55.8732 26.582H48.5118Z" fill="#431512"/>
<path d="M130.912 10.0901H125.982C126.401 10.785 126.231 11.8942 125.799 13.0168L122.609 21.7168L119.301 13.0168C118.856 11.8942 118.699 10.785 119.118 10.0901H112.75C113.626 11.0389 114.175 12.2551 114.489 13.0168L119.968 26.5813H124.23C124.23 26.5813 124.335 25.4721 124.819 24.2293L129.225 13.0168C129.526 12.2417 130.153 10.9053 130.912 10.0901Z" fill="#431512"/>
<path d="M113.403 18.8197C113.717 15.3718 112.788 9.37134 105.336 9.37134C99.2555 9.37134 97.0197 13.7013 97.0197 17.9243C97.0197 23.2967 99.8831 26.9852 106.735 26.9852C109.52 26.9852 111.769 26.1432 113.102 25.3147L111.729 22.2142C110.435 22.8824 108.853 23.4704 107.088 23.4704C104.028 23.4704 102.145 22.3746 101.74 19.2741H108.356C110.788 19.2875 112.762 19.1405 113.403 18.8197ZM101.753 16.4409C102.054 13.7815 103.217 12.4317 105.336 12.4317C107.532 12.4317 108.617 14.169 108.709 16.4142C108.709 16.4142 107.741 16.4409 106.486 16.4409H101.753Z" fill="#431512"/>
<path d="M68.4649 26.5795H74.9895C73.9957 25.056 73.9957 23.6661 73.9957 23.6528V14.8459C73.9957 11.6919 72.3352 9.75415 68.831 9.75415C66.5951 9.75415 64.7515 10.7832 63.3917 12.0394V10.0883H57.8478C58.8415 11.6251 58.8415 13.0016 58.8415 13.015V23.6394C58.8415 23.6661 58.8415 25.0426 57.8478 26.5661H64.3854C63.3917 25.0426 63.3917 23.6528 63.3917 23.6394V14.8459C64.2285 13.9638 65.4184 13.3224 66.7259 13.3224C68.7264 13.3224 69.4586 14.4583 69.4586 16.2224V23.6394C69.4586 23.6661 69.4586 25.0426 68.4649 26.5795Z" fill="#431512"/>
<path d="M85.3702 15.53C88.5867 15.53 90.3519 17.1337 90.3519 19.7263C90.3519 22.0516 88.992 23.7489 85.2917 23.7489H83.082V15.53H85.3702ZM84.8864 6.00139C87.6976 6.00139 89.0051 7.12397 89.0051 9.2355C89.0051 11.3337 87.8283 12.5899 85.1218 12.5899C84.5988 12.5899 83.6443 12.6032 83.082 12.5899V6.00139H84.8864ZM85.4748 26.582C86.9 26.582 88.2206 26.5019 89.1751 26.3281C92.8493 25.6733 95.5689 23.7489 95.5689 19.606C95.5689 16.2784 93.4899 14.5544 90.2211 13.5922C93.15 12.4562 94.1306 10.8258 94.1306 8.70093C94.1306 5.03918 91.2148 3.16821 85.9586 3.16821H77.172C77.7865 4.11706 77.9957 5.49356 77.9957 6.4825V23.2678C77.9957 24.3636 77.7996 25.5129 77.172 26.582H85.4748V26.582Z" fill="#431512"/>
</svg>

<svg xmlns="http://www.w3.org/2000/svg" fill="none" viewBox="0 0 134 30"><path fill="#B31F24" d="M40.627 13.496c3.034-1.256 4.158-2.953 4.158-5.051 0-3.662-3.125-5.292-8.25-5.292h-9.166c.575.895 1.125 1.857 1.125 3.3v7.27c-2.694.548-5.113 1.016-7.388 1.577-2.04-5.746-4.315-12.147-4.315-12.147h-5.7c.09.801.013 1.657-.406 2.82l-6.38 18.175s-.42 1.282-1.295 2.432h4.668c-.092-.628.026-1.457.183-1.965.47-1.43 1.739-2.378 3.086-2.993 1.752-.816 4.798-1.791 6.236-2.232l1.517 4.437s.615 1.67.288 2.753h6.59c-.994-1.377-1.334-2.406-1.334-2.432-.157-.428-1.02-2.887-2.131-5.988 2.013-.494 4.119-.908 6.38-1.363v6.455c0 1.243-.496 2.339-1.124 3.314h8.708c1.425 0 2.694-.08 3.648-.253 3.74-.669 6.42-2.62 6.42-6.776.013-3.18-2.079-5.078-5.518-6.04Zm-29.445 4.838c-.55.267-1.255.709-1.66 1.123 1.255-3.742 2.98-8.887 3.817-11.32l2.877 8.393c-1.451.428-3.687 1.15-5.034 1.804ZM33.58 6.08c.902-.053 1.229-.053 1.817-.053 2.812 0 4.119 1.203 4.119 2.9 0 1.617-1.046 2.62-2.785 3.154-.732.227-1.948.48-3.151.695V6.079Zm2.118 17.587h-2.105v-7.804c.784-.187 2.04-.415 2.863-.508 2.537.601 4.407 1.67 4.407 4.317-.013 3.087-2.223 3.995-5.165 3.995Z"/><path fill="#431512" d="M48.512 26.582c1.124-1.724 1.124-3.288 1.124-3.314V6.483c0-.027 0-1.577-1.124-3.315h7.361C54.75 4.906 54.75 6.456 54.75 6.482v16.786c0 .026 0 1.59 1.124 3.314h-7.361ZM130.912 10.09h-4.93c.419.695.249 1.804-.183 2.927l-3.19 8.7-3.308-8.7c-.445-1.123-.602-2.232-.183-2.927h-6.368c.876.949 1.425 2.165 1.739 2.927l5.479 13.564h4.262s.105-1.109.589-2.352l4.406-11.212c.301-.775.928-2.112 1.687-2.927ZM113.403 18.82c.314-3.448-.615-9.449-8.067-9.449-6.08 0-8.316 4.33-8.316 8.553 0 5.373 2.863 9.061 9.715 9.061 2.785 0 5.034-.842 6.367-1.67l-1.373-3.1c-1.294.667-2.876 1.255-4.641 1.255-3.06 0-4.943-1.095-5.348-4.196h6.616c2.432.014 4.406-.134 5.047-.454Zm-11.65-2.38c.301-2.659 1.464-4.008 3.583-4.008 2.196 0 3.281 1.737 3.373 3.982 0 0-.968.027-2.223.027h-4.733ZM68.465 26.58h6.525c-.994-1.524-.994-2.914-.994-2.927v-8.807c0-3.154-1.66-5.092-5.165-5.092-2.236 0-4.08 1.03-5.44 2.285v-1.95h-5.543c.994 1.536.994 2.913.994 2.926v10.624c0 .027 0 1.404-.994 2.927h6.537c-.993-1.523-.993-2.913-.993-2.927v-8.793c.836-.882 2.026-1.524 3.334-1.524 2 0 2.733 1.136 2.733 2.9v7.417c0 .027 0 1.404-.994 2.94ZM85.37 15.53c3.217 0 4.982 1.604 4.982 4.196 0 2.326-1.36 4.023-5.06 4.023h-2.21V15.53h2.288Zm-.484-9.529c2.812 0 4.12 1.123 4.12 3.234 0 2.099-1.178 3.355-3.884 3.355-.523 0-1.478.013-2.04 0V6h1.804Zm.589 20.581c1.425 0 2.746-.08 3.7-.254 3.674-.655 6.394-2.58 6.394-6.722 0-3.328-2.08-5.052-5.348-6.014 2.929-1.136 3.91-2.766 3.91-4.891 0-3.662-2.916-5.533-8.172-5.533h-8.787c.615.95.824 2.326.824 3.314v16.786c0 1.096-.196 2.245-.824 3.314h8.303Z"/></svg>
